static/fa/svgs/solid/house-flood-water.svg

<svg xmlns="http://www.w3.org/2000/svg" viewBox="0 0 576 512"><!--! Font Awesome Free 6.1.1 by @fontawesome - https://fontawesome.com License - https://fontawesome.com/license/free (Icons: CC BY 4.0, Fonts: SIL OFL 1.1, Code: MIT License) Copyright 2022 Fonticons, Inc.--><path d="M482.8 134.1c11.2 8.2 15.9 22.6 11.6 35.8-4.3 13.2-16.5 22.1-30.4 22.1h-16.6l.3 73.2c-1.6.9-3.1 1.9-4.5 2.9-18 12.4-40.2 20.4-59.2 20.4-19.6 0-40.8-7.7-59.2-20.4-22-15.5-51.5-15.5-73.6 0-17.2 11.8-38 20.4-59.2 20.4-19.9 0-41.2-8-59.1-20.4-1.6-1.1-3.2-3-4.9-3.1v-73h-16c-13.86 0-26.14-8.9-30.43-22.1-4.29-13.2.4-27.6 11.61-35.8L269.2 6.12c11.2-8.16 26.4-8.16 37.6 0l176 127.98zM269.5 309.9c11.1-7.9 25.9-7.9 37 0 21.6 15.5 50 26.1 77.5 26.1 26.9 0 55.4-10.8 77.4-26.1h.1c11.9-8.5 28-7.8 39.2 1.7 14.3 11.9 32.5 21 50.6 25.2 17.2 4 27.9 21.3 23.9 38.5s-22.1 27.9-38.5 23.9c-24.5-5.8-44.8-16.6-58.2-25-29 15.5-61.5 25.8-94.5 25.8-31.9 0-60.6-9.9-80.4-18.9-5.9-2.6-11.1-5.3-15.6-7.7-4.5 2.4-9.7 5.1-15.6 7.7-19.8 9-48.5 18.9-80.4 18.9-33.9 0-65.5-10.3-94.5-25.8-13.38 8.4-33.71 19.2-58.23 25-17.21 4-34.416-6.7-38.427-23.9-4.012-17.2 6.689-34.5 23.897-38.5 18.1-4.2 36.22-13.3 50.57-25.2 11.15-9.5 27.29-10.2 39.19-1.7h.1c22.1 15.3 50.5 26.1 77.4 26.1 27.5 0 55-10.6 77.5-26.1zm191.9 112h.1c11.9-8.5 28-7.8 39.2 1.7 14.3 11.9 32.5 21 50.6 25.2 17.2 4 27.9 21.3 23.9 38.5s-22.1 27.9-38.5 23.9c-24.5-5.8-44.8-16.6-58.2-25-29 15.5-61.5 25.8-94.5 25.8-31.9 0-60.6-9.9-80.4-18.9-5.9-2.6-11.1-5.3-15.6-7.7-4.5 2.4-9.7 5.1-15.6 7.7-19.8 9-48.5 18.9-80.4 18.9-33.9 0-65.5-10.3-94.5-25.8-13.38 8.4-33.71 19.2-58.23 25-17.21 4-34.417-6.7-38.428-23.9-4.011-17.2 6.69-34.5 23.898-38.5 18.1-4.2 36.22-13.3 50.57-25.2 11.15-9.5 27.29-10.2 39.19-1.7h.1c22.1 15.3 50.5 26.1 77.4 26.1 27.5 0 55-10.6 77.5-26.1 11.1-7.9 25.9-7.9 37 0 21.6 15.5 50 26.1 77.5 26.1 26.9 0 55.4-10.8 77.4-26.1z"/></svg>

<svg xmlns="http://www.w3.org/2000/svg" viewBox="0 0 576 512"><!--! Font Awesome Free 6.1.1 by @fontawesome - https://fontawesome.com License - https://fontawesome.com/license/free (Icons: CC BY 4.0, Fonts: SIL OFL 1.1, Code: MIT License) Copyright 2022 Fonticons, Inc. --><path d="M482.8 134.1C494 142.3 498.7 156.7 494.4 169.9C490.1 183.1 477.9 192 464 192H447.4L447.7 265.2C446.1 266.1 444.6 267.1 443.2 268.1C425.2 280.5 403 288.5 384 288.5C364.4 288.5 343.2 280.8 324.8 268.1C302.8 252.6 273.3 252.6 251.2 268.1C234 279.9 213.2 288.5 192 288.5C172.1 288.5 150.8 280.5 132.9 268.1C131.3 267 129.7 265.1 128 265V192H112C98.14 192 85.86 183.1 81.57 169.9C77.28 156.7 81.97 142.3 93.18 134.1L269.2 6.12C280.4-2.04 295.6-2.04 306.8 6.12L482.8 134.1zM269.5 309.9C280.6 302 295.4 302 306.5 309.9C328.1 325.4 356.5 336 384 336C410.9 336 439.4 325.2 461.4 309.9L461.5 309.9C473.4 301.4 489.5 302.1 500.7 311.6C515 323.5 533.2 332.6 551.3 336.8C568.5 340.8 579.2 358.1 575.2 375.3C571.2 392.5 553.1 403.2 536.7 399.2C512.2 393.4 491.9 382.6 478.5 374.2C449.5 389.7 417 400 384 400C352.1 400 323.4 390.1 303.6 381.1C297.7 378.5 292.5 375.8 288 373.4C283.5 375.8 278.3 378.5 272.4 381.1C252.6 390.1 223.9 400 192 400C158.1 400 126.5 389.7 97.5 374.2C84.12 382.6 63.79 393.4 39.27 399.2C22.06 403.2 4.854 392.5 .8426 375.3C-3.169 358.1 7.532 340.8 24.74 336.8C42.84 332.6 60.96 323.5 75.31 311.6C86.46 302.1 102.6 301.4 114.5 309.9L114.6 309.9C136.7 325.2 165.1 336 192 336C219.5 336 247 325.4 269.5 309.9H269.5zM461.4 421.9L461.5 421.9C473.4 413.4 489.5 414.1 500.7 423.6C515 435.5 533.2 444.6 551.3 448.8C568.5 452.8 579.2 470.1 575.2 487.3C571.2 504.5 553.1 515.2 536.7 511.2C512.2 505.4 491.9 494.6 478.5 486.2C449.5 501.7 417 512 384 512C352.1 512 323.4 502.1 303.6 493.1C297.7 490.5 292.5 487.8 288 485.4C283.5 487.8 278.3 490.5 272.4 493.1C252.6 502.1 223.9 512 192 512C158.1 512 126.5 501.7 97.5 486.2C84.12 494.6 63.79 505.4 39.27 511.2C22.06 515.2 4.853 504.5 .8422 487.3C-3.169 470.1 7.532 452.8 24.74 448.8C42.84 444.6 60.96 435.5 75.31 423.6C86.46 414.1 102.6 413.4 114.5 421.9L114.6 421.9C136.7 437.2 165.1 448 192 448C219.5 448 247 437.4 269.5 421.9C280.6 414 295.4 414 306.5 421.9C328.1 437.4 356.5 448 384 448C410.9 448 439.4 437.2 461.4 421.9H461.4z"/></svg>
